X:1
T:135 - Louvor
T:Letra: William Paton Mackay (1839-1885)
T:Trad.: James Theodore Houston (1847-1929)
T:MÃºsica: John Jenkins Husband (1760-1825)
M:3/4
L:1/4
K:Ebmaj
V:1
B, | "Eb"EEE | E2E/2F/2 | GGG | G2E/2G/2 | BBB | cBG | "Bb"GFF | Fz || B3/4B/4 | "Eb"cB "Bb7"G3/4F/4 | "Eb"EE B/2B/2 | cBG | "Bb"Fz B3/4B/4 | "Eb"cB "Bb7"G3/4F/4 | "Eb"EE G3/4G/4 | "Ab"AG "Bb7"F | "Eb"E2 |]
w:1.~Lou-va-mos-Te,Ã³ Deus, Pe-lo dom de Je-sus, Que por nÃ³s pe-ca-do-res Foi mor-to na cruz. A-le-lui-a, to-da glÃ³-ria Te ren-de-mos, sem fim; A-le-lui-a, tu-a gra-Ã§a Im-plo-ra-mos. A-mÃ©m!
w:2.~Lou-va-mos-Te,Ã³ Deus, Eao teu Fi-lho dea-mor, Que foi mor-to, mas vi-ve, Su-pre-mo Se-nhor.
w:3.~Lou-va-mos-Te,Ã³ Deus, Pe-loEs-pÃ­-ri-to, luz Que nos ti-ra das tre-vas Ea Cris-to con-duz.
w:4.~Oh, vem nos en-cher De ce-les-te fer-vor, E fa-zer-nos fru-ir Teu a-fÃ¡-vel a-mor!
W:
W:
W:1. Louvamos-Te, Ã³ Deus,
W:Pelo dom de Jesus,
W:Que por nÃ³s pecadores
W:Foi morto na cruz.
W:
W:2. Louvamos-Te, Ã³ Deus,
W:E ao teu Filho de amor,
W:Que foi morto, mas vive,
W:Supremo Senhor.
W:
W:
W:
W:3. Louvamos-Te, Ã³ Deus,
W:Pelo EspÃ­rito, luz
W:Que nos tira das trevas
W:E a Cristo conduz.
W:
W:4. Oh, vem nos encher
W:De celeste fervor,
W:E fazer-nos fruir
W:Teu afÃ¡vel amor!
W:
W:(Estribilho)
W:Aleluia, toda glÃ³ria
W:Te rendemos, sem fim;
W:Aleluia, tua graÃ§a
W:Imploramos. AmÃ©m!

